X:1
T:Title
%%score ( 1 2 ) ( 3 4 )
L:1/8
Q:1/4=75
M:6/8
K:Db
V:1 treble nm="Strings 1, Soprano"
V:2 treble 
V:3 bass nm="Strings 1, Bass"
V:4 bass 
V:1
 z3 z2 [FA] | [FA]2 [FA] Ad[GB] | [FA]3 D2 [DG] | [DF]2 [D_F] [C=F]2 [CE] | D3- D2 D | %5
w: 1.~To~|Thee,~ O~ Lord~ * Je|ho vah,~ We~|hymn~ our~ grate ful~|praise,~ * For~|
 DG[GB] [Gd]2 [GB] | [FA]3 [DF]2 [DF] | [EA]2 E [DF]2 [D=G] | [EA]6 | [EG]2 [EG] [EG][DF][CE] | %10
w: all~ * Thy~ lov ing|kind ness,~ The~|wis dom~ of~ Thy~|ways.~||
 D2 [GB] [FA]3 | [Gc]2 [Gc] cB[EA] | [EG]2 [Ge] [Fd]3 | [Fd]2 [Fd] [Fd][Ac][GB] | %14
w: ||||
 [FA]2 D [DG]2 [DF] | [DF]2 E [DF]2 [DE] | [DF]2 [D=G] [CA]3[Q:1/4=12] | %17
w: |||
[Q:1/4=75] [FA]2 [FA] AB[GA] | A2 A [Fd]2 [Fd] | [FA]2 [FA] AB[GA] | A2 A [Fd]2 [Fd] | %21
w: ||||
 [Ad]2 [Ad] [Ae]2 [Ae] | [Af]3[Q:1/4=75] [Ge]3[Q:1/4=12] | [Fd]2 [GA] [GA]2 [Gc] | [Fd]6 |] %25
w: ||||
V:2
 x6 | z3 .F3 | x6 | x6 | x6 | x6 | x6 | x6 | x6 | x6 | x6 | z3 .G3 | x6 | x6 | x6 | x6 | x6 | %17
 z3 .G3 | x6 | z3 .G3 | x6 | x6 | x6 | x6 | x6 |] %25
V:3
 z3 z2 [D,A,] | [D,A,]2 [D,A,] [D,A,]2 [D,D] | [D,D]3 [D,F,]2 [D,B,] | %3
 [D,B,]2 [D,=G,] [A,,A,]2 [A,,_G,] | [D,F,]3- [D,F,]2 [D,F,] | [G,B,]2 [G,B,] [G,B,]2 [G,D] | %6
 [D,D]3 [D,A,]2 [D,A,] | [C,A,]2 [C,A,] [D,A,]2 [E,D] | [A,,C]6 | %9
 [A,,A,]2 [A,,A,] [A,,A,]2 [A,,G,] | [D,F,]2 [D,D] [D,D]3 | [A,E]2 [A,E] ED[A,C] | %12
 [A,C]2 [A,C] [D,D]3 | z3 .A,3 | [D,D]2 [D,F,] [D,B,]2 [D,A,] | [D,A,]2 [C,=A,] [B,,B,]2 [B,,B,] | %16
 [E,B,]2 [E,B,] [A,,A,]3 | [D,A,]2 [D,A,] [E,C]2 [E,C] | [F,D]2 [F,D] [D,A,]2 [D,A,] | %19
 [D,A,]2 [D,A,] [E,C]2 [E,C] | [F,D]2 [F,D] [D,A,]2 [D,A,] | [F,D]2 [F,D] [A,C]2 [A,C] | %22
 D3 [G,B,]3 | A,2 [A,C] [A,C]2 [A,E] | [D,D]6 |] %25
V:4
 x6 | x6 | x6 | x6 | x6 | x6 | x6 | x6 | x6 | x6 | x6 | z3 .A,3 | x6 | %13
 [D,A,]2 [D,A,] D,-[D,B,][D,C] | x6 | x6 | x6 | x6 | x6 | x6 | x6 | x6 | x6 | x6 | x6 |] %25

